X: 1326
T: An Paistin Fionn
R: hornpipe
M: 4/4
K: Edorian
|:(3Bcd|efed Beed|geag f2 gf|efed BA GA|B2 cA B2 (3Bcd|
efed Beed|geag f2 gf|efed BA FA|E2 ED E2:|
|:(3DEF|G2 Bc dBBA|B3c dcBA|G2 Bc dBBA|Beed e2(3DEF|
G2 Bc dBBA|Bega b3 a|e2 ed BA FA|E2 ED E2:|

